X:1
T:Sevilla
T:Sevilla (Sevillanas)
T:Suite Española, Op. 47, No. 03
T:Isaac Albeniz (1860 - 1909)
C:Isaac Albeniz
%%score ( 1 2 3 4 )
L:1/8
Q:1/4=115
M:3/4
K:G
V:1 treble-8 nm="Classical Guitar" snm="Guit."
V:2 treble-8 
V:3 treble-8 
V:4 treble-8 
V:1
"^Allegretto"!p! !arpeggio!g(g/f/) =f!<(!(e/_e/)"^VII" d(^f/d/)!<)! | %1
 g(g/f/)!>(! =f(e/_e/)"^VII" d(^f/d/)!>)! |!p! DD/E/ DD G2 | [GB]4"^VII" !arpeggio![df]2 | %4
 [GB]2 z!pp! (B/d/) ([Fc]/d/)(c/d/) | B!<(!(d/e/) (d/e/)(g/e/) fe/d/!<)! | %6
!mf! !arpeggio!D(D/E/) DD G2 | [GB]4"^VII" !arpeggio![df]2 | [GB]2 z!pp! (B/d/) ([Fc]/d/)(c/d/) | %9
 B!<(!(d/e/) (d/e/)(g/e/) f(e/"^III"d/)!<)! |!f! D(D/_E/) .D.D z2 | %11
"^III" d!>(!(d/_e/) =f2 e>c!>)! |!<(!"^III" (d/_e/)(d/e/) =f/g/(a/g/) f/e/d/c/!<)! | %13
!>(! (d/_e/)(d/e/) =f/g/(a/g/) f/e/d/c/!>)! | _B(=F/G/) .F.F!p! ^F2 | G(G/_A/) .G.G G=A | %16
 B(D/E/)!>(! .D.D c!-(!c!>)! | [Bd](g/f/) =f(e/_e/)"^VII" d(^f/d/) | %18
!>(! [dg](g/f/) =f(e/_e/)"^VII" d(^f/d/)!>)! | z (G/F/) G(B/^A/) B(d/^c/) | %20
 d(g/f/) g(b/^a/) b(b/a/) | b(b/^a/) b(b/a/) b(b/a/) | b(b/^a/) b(b/a/) b(b/a/) | %23
 GG,/G,/ G,/G,/G,/G,/ G,/G,/G,/G,/ | G,G,/G,/ G,G,/G,/ G,G, ||[K:Eb]!f!"^VII" B(B/c/) .B.B z B | %26
 [ce]3 z d2 | [Be]3!p! G/B/ (A/B/)(A/B/) | G!<(!B/c/ B/c/e/c/"^III" dc/B/!<)! | %29
!f!"^VIII" B(B/c/) .B.B z B | [ce]3 z!pp!"^II" ^c2 ||[K:D] [Ad]3 F/"^II"A/ G/A/G/A/ | %32
 F!<(!"^II"(A/B/) (A/B/)(A/B/) cB/A/!<)! |!f!"^VII" z (A/B/) AA z A |"^VII" [df]3 A c2 | %35
"^II" [Ad]3!p! F/A/ G/A/G/A/ | F"^II"(A/B/)!<(! A/B/A/B/ cB/A/!<)! |!f!"^VII" z (A/B/) .A.A z A | %38
"^VII" z (A/B/) .A z z A |"^VII" z (A/B/) .A z!p! x x |!pp! =c/d/_e/=f/ e/f/e/d/ c/d/c/_B/ | %41
 A/_B/=c/d/ c/d/c/B/ A/B/A/G/ | F/G/A/_B/ =c/B/A/G/!<(! =F/G/F/_E/!<)! | %43
!f! D"^II"[df] [Ada]"^VII"[dfd'] [G_b_e'][G_B_e] | D"^II"[df] [Ada]"^VII"[dfd'] [G_b_e'][G_B_e] | %45
!f! ff ff"^II" gg | ff ff"^II" gg | [Adf]6 | z d'/d'/ d'd'/d'/ d'd'/d'/ || %49
[K:G] !arpeggio!g!p!(g/f/) =f(e/_e/)"^VII" d^f/d/ | g(g/f/)!>(! =f(e/_e/)"^VII" d^f/d/!>)! | %51
!p! DD/E/ DD G2 | [GB]4"^VII" !arpeggio![df]2 | [GB]2 z!pp! (B/d/) ([Fc]/d/)(c/d/) | %54
 B!<(!d/e/ d/e/g/e/ fe/d/!<)! |!f! !arpeggio!DD/E/ DD G2 | [GB]4"^VII" !arpeggio![df]2 | %57
 [GB]2 z!pp! (B/d/) ([Fc]/d/)(c/d/) | B!<(!(d/e/) (d/e/)(g/e/) fe/"^III"d/!<)! | %59
!f! D(D/_E/) .D.D z2 |"^III" d!>(!(d/_e/) =f2 e>c!>)! | %61
!<(! (d/_e/)(d/e/) =f/g/(a/g/) f/e/d/c/!<)! |!>(! (d/_e/)(d/e/) =f/g/(a/g/) f/e/d/c/!>)! | %63
 _B(=F/G/) .F.F!p! ^F2 | G(G/_A/) .G.G G=A | B(D/E/)!>(! .D.D c!-(!c!>)! | %66
 [Bd]!<(!(g/f/) =f(e/_e/)"^VII" d(^f/d/)!<)! |!>(! [dg](g/f/) =f(e/_e/)"^VII" d(^f/d/)!>)! | %68
 z (G/F/) G(B/^A/) B(d/^c/) | d(g/f/) g(b/^a/) b(b/a/) | b(b/^a/) b(b/a/) b(b/a/) | %71
 b(b/^a/) b(b/a/) b(b/a/) | GG,/G,/ G,/G,/G,/G,/ G,/G,/G,/G,/ | G,G,/G,/ G,G,/G,/ G,G, | %74
 G, z !fermata!z2 z2 ||[K:Eb] z!p! c de fa | c'2- c'/b/a/g/ (f/g/)a/g/ | %77
 (g/a/)g/f/ (e/f/)e/d/ (c/d/)e/g/ | g2 z f/e/ (d/e/)f/a/ | %79
"^I" (3(g/a/g/)f/e/ d/e/f/g/ (3(f/g/f/)e/d/ | c z"^I" [Ac]4 | (e/d/)c/G/ (e/d/)c/G/ F/E/D/G,/ | %82
"^VIII" [egc'] c!<(! de fg!<)! |!f! e'2- e'/d'/c'/b/ (3(c'/d'/c'/)b/a/ | %84
 (b/c'/)b/a/ gf/g/ a/b/c'/a/ | (3(g/a/g/)f/g/ ed/e/ (3(f/g/f/)e/f/ | %86
 (3(d/e/d/)c/e/ dc/d/ e/f/g/a/ | (3(f/g/f/)(3(e/f/e/) (3(d/e/d/)(3(c/d/c/) (3(B/c/B/)(3(A/B/A/) | %88
 G2 [cd]4 | d/c/=B/G/ d/c/B/G/ E/D/C/=A,/ | Gg!>(! gg g>g!>)! |!p! g2 f>d e/f/g/a/ | %92
 ga/g/ fd/f/ (3(e/f/e/)d/c/ | =B>d d2"_VII" x2 |"^IV" b g gg g>g | g2 fd/e/"^VI" A2 | %96
!<(! ga/g/ fd/e/ (6:4:6f/g/f/e/d/c/!<)! | =B!f!f'/f'/ a'"^X"d'/d'/ f'"^VII"=b/b/ | %98
 d'"^IV"a/a/"^V" c'"^I"f/f/ ad/d/ | g"^I"f/f/ a/a/d/d/ f/f/=B/B/ | d/d/A/A/ c/c/F/F/ A/A/D/D/ | %101
 G,G,/G,/ G,/G,/G,/G,/ G,/G,/G,/G,/ | G, z !fermata!z2 z2 | z!p! c de fa | %104
 c'2- c'/b/a/g/ (f/g/)a/g/ | (g/a/)g/f/ (e/f/)e/d/ (c/d/)e/g/ | g2 z f/e/ (d/e/)f/a/ | %107
"^I" (3(g/a/g/)f/e/ d/e/f/g/ (3(f/g/f/)e/d/ | c z"^I" [Ac]4 | e/d/c/G/ e/d/c/G/ F/E/D/G,/ | %110
!mf!"^V" c'c' c'"^VIII"g gG |"^IV" ee eB B2 | dd!<(! d"^III"g g=b!<)! | %113
!ff!"^VII" =bd' d'd'/d'/ d'd' |!p! g(g/^f/) =f!<(!(=e/_e/)"^VII" d(^f/d/)!<)! | %115
 g(g/^f/)!>(! =f(=e/_e/)"^VII" d(^f/d/)!>)! |!p! DD/=E/ DD G2 | [G=B]4"^VII" !arpeggio![d^f]2 | %118
 [G=B]2 z!pp! (B/d/) ([^Fc]/d/)(c/d/) | =B!<(!!<(!(d/=e/) (d/e/)(g/e/) ^fe/d/!<)!!<)! | %120
!mf! D(D/=E/) DD G2 | [G=B]4"^VII" !arpeggio![d^f]2 | [G=B]2 z!pp! (B/d/) ([^Fc]/d/)(c/d/) | %123
 =B!<(!!<(!(d/=e/) (d/e/)(g/e/) ^f(e/"^III"d/)!<)!!<)! |!f! D(D/E/) .D.D z2 | %125
"^III" d!>(!(d/e/) f2 e>c!>)! |!<(!"^III" (d/e/)(d/e/) f/g/(=a/g/) f/e/d/c/!<)! | %127
!>(! (d/e/)(d/e/) f/g/(=a/g/) f/e/d/c/!>)! | B(F/G/) .F.F!p!!p! ^F2 | G(G/A/) .G.G G=A | %130
 =B(D/=E/)!>(! .D.D c!-(!c!>)! | [=Bd](g/^f/) =f(=e/_e/)"^VII" d(^f/d/) | %132
!>(! [dg](g/^f/) =f(=e/_e/)"^VII" d(^f/d/)!>)! | z (G/^F/) G(=B/^A/) B(d/^c/) | %134
 d(g/^f/) g(=b/^a/) b(b/a/) | =b(b/^a/) b(b/a/) b(b/a/) | =b(b/^a/) b(b/a/) b(b/a/) | [=bg']6- | %138
 [bg']4 [g=b]2 | [GG]6 |] %140
V:2
 bb bb c'c' | bb bb c'c' | !^!g'4 !arpeggio![af']>d' | !arpeggio!e'(3(e'/f'/e'/) d'2 c'>a | %4
 (!arpeggio!b/c'/)d' d' z z2 | GD .D.D [Ac]3/2 z/ | !^!g'4 !arpeggio![af']>d' | %7
 !arpeggio!e'(3(e'/f'/e'/) d'2 c'>a | (!arpeggio!b/c'/)d' d' z z2 | GD .D.D [Ac]3/2 z/ | %10
 !arpeggio![Bdg]4 =f>c | [=F_B]3 F A2 | _B(=F/G/) .F.F z F | _B=F/G/ .F.F z F | d4 dd/c/ | %15
 _B3 c/d/ _e(=f/e/) | d(B/c/) [Bd](b/!-(!c'/) !-)!b(a/b/) | gb bb c'c' | bb bb c'c' | %19
 [dgb]B Bd dg | gb bd' d'g' | g'g' g'g' g'g' | g'g' g'g' g'g' | [bg']2 z4 | x6 || %25
[K:Eb] !arpeggio![ege']4 [ad']>b | !arpeggio!c'(3(c'/d'/c'/) b2 a>f | g/a/b b z z2 | E,4 [B,FB]2 | %29
 !arpeggio![ege']4 [ad']>b | !arpeggio!c'(3(c'/d'/c'/) b2 =a>g ||[K:D] (f/g/).a a2 z2 | %32
 z [A,F] .A,.A, [EG]A, | !arpeggio!!>![dfd']4 [gc']>a | !arpeggio!b(3(b/c'/b/) a2 g>e | %35
 (f/g/).a a2 z2 | z [A,F] .A,.A, [EG]A, | !arpeggio!!>![dfd']4 [cgc']>a | %38
 !arpeggio![dfb]3 [dd'] [cgc']>a | !arpeggio![dfb]3 [dd'] [=cg=c']>A | x6 | x6 | x6 | D,A FD CC | %44
 D,A FD CC | [Ad](d/c/) =c(B/_B/) A(^c/A/) | [Ad](d/c/) =c(B/_B/) A^c/A/ | %47
 D,D/D/ D/D/!<(!D/D/ D/D/D/!f!D/!<)! | [D,D]2 [D,D]2 D,2 ||[K:G] bb bb c'c' | bb bb c'c' | %51
 !^!g'4 !arpeggio![af']>d' | !arpeggio!e'(3(e'/f'/e'/) d'2 c'>a | (!arpeggio!b/c'/)d' d' z z2 | %54
 GD .D.D [Ac]3/2 z/ | !^!g'4 !arpeggio![af']>d' | !arpeggio!e'(3(e'/f'/e'/) d'2 c'>a | %57
 (!arpeggio!b/c'/)d' d' z z2 | GD .D.D [Ac]3/2 z/ | !arpeggio![Bdg]4 =f>c | [=F_B]3 F A2 | %61
 B(=F/G/) .F.F z F | B(=F/G/) .F.F z F | d4 dd/c/ | B3 c/d/ _e(=f/e/) | %65
 d(B/c/) [Bd](b/!-(!c'/) !-)!b(a/b/) | gb bb c'c' | bb bb c'c' | [dgb]B Bd dg | gb bd' d'g' | %70
 g'g' g'g' g'g' | g'g' g'g' g'g' | [bg']2 z4 | x6 | x6 ||[K:Eb] x6 | x6 | x6 | z F, [CA]2 z2 | %79
 [DAc]4 [G=B]2 | z F,/G,/ F,/G,/A,/B,/ (C/A,/)G,/F,/ | G2 G2 [G=B]2 | C z z4 | x6 | x6 | x6 | x6 | %87
 x6 | GG, D,/=E,/^F,/G,/ =A,/=B,/C/A,/ | z2 z2 D,2 | G,2 z4 | A,>D cD A2 | A,>D cD A2 | %93
 G,>D G=B d"^V"g | x6 | A,>D cD (7:4:7f/g/a/b/(c'/b/)a/ | A,>D cD A2 | Gf ad f=B | dA cF AD | %99
 GF AD F=B, | DA, CF, A,D, | G z z4 | x6 | x6 | x6 | x6 | z F, [CA]2 z2 | [DAc]4 [G=B]2 | %108
 z F,/G,/ F,/G,/A,/B,/ (C/A,/)G,/F,/ | G2 G2 [G=B]2 | [Ge]e/d/ e(c/=B/) cG | G(G/^F/) G(E/D/) EG, | %112
 [D,D=B]([GB]/^F/) [D,GB]([Bd]/^A/) [D,Bd]([dg]/^c/) | [D,dg]([=Bg]/^A/) [D,Bg]2 [D,c^f][D,cf] | %114
 !arpeggio!=bb bb c'c' | =bb bb c'c' | !^!g'4 !arpeggio![=a^f']>d' | %117
 !arpeggio!=e'(3(e'/^f'/e'/) d'2 c'>=a | ((!arpeggio!=b/c'/))d' d' z z2 | GD .D.D [=Ac]3/2 z/ | %120
 !^!g'4 !arpeggio![=a^f']>d' | !arpeggio!=e'(3(e'/^f'/e'/) d'2 c'>=a | %122
 (!arpeggio!=b/c'/)d' d' z z2 | GD .D.D [=Ac]3/2 z/ | !arpeggio![=Bdg]4 f>c | [FB]3 F =A2 | %126
 B((F/G/)) .F.F z F | BF/G/ .F.F z F | d4 dd/c/ | B3 c/d/ e(f/e/) | %130
 d(=B/c/) [Bd](=b/!-(!c'/) !-)!b(=a/b/) | g=b bb c'c' | =bb bb c'c' | [dg=b]=B Bd dg | %134
 g=b bd' d'g' | g'g' g'g' g'g' | g'g' g'g' g'g' | G6- | G4 [Gd]2 | G,6 |] %140
V:3
 G,3 D AD | G,3 D AD | !arpeggio![G,GB]4 G,2 | G,4 G,2 | G,4 G,2 | G,4 G,2 | [G,GB]4 G,2 | %7
 G,4 G,2 | G,4 G,2 | G,4 G,2 | G,4 =F,2 | _B,4 B,2 | _B,4 B,2 | _B,4 B,2 | _B,4 A,2 | G,4 C2 | %16
 D4 D2 | G,3 D AD | G,3 D AD | .G, x5 | x6 | .G z .G z .G z | .G z .G z .G z | x6 | x6 || %25
[K:Eb] E4 E2 | E4 E2 | E4 E2 | x6 | E4 E2 | E4 E2 ||[K:D] D4 A,2 | D,4 D, z | D,4 D,2 | D,4 D,2 | %35
 D,4 A,2 | D,4 D, z | D,4 D,2 | D,4 D,2 | D,4 _E2 | x6 | x6 | x6 | x6 | x6 | D,3 A, EA, | %46
 D,3 A, EA, | x6 | x6 ||[K:G] G,3 D AD | G,3 D AD | !arpeggio![G,GB]4 G,2 | G,4 G,2 | G,4 G,2 | %54
 G,4 G,2 | [G,GB]4 G,2 | G,4 G,2 | G,4 G,2 | G,4 G,2 | G,4 =F,2 | _B,4 B,2 | B,4 B,2 | B,4 B,2 | %63
 _B,4 A,2 | G,4 C2 | D4 D2 | G,3 D AD | G,3 D AD | .G, x5 | x6 | .G z .G z .G z | .G z .G z .G z | %72
 x6 | x6 | x6 ||[K:Eb] x6 | x6 | x6 | x6 | x6 | x6 | G,G G,G G,G | x6 | x6 | x6 | x6 | x6 | x6 | %88
 x6 | [D,G]D [D,G]D c^F | x6 | x6 | x6 | x6 | x6 | x6 | x6 | x6 | x6 | x6 | x6 | x6 | x6 | x6 | %104
 x6 | x6 | x6 | x6 | x6 | G,G G,G G,G | C3 z3 | x6 | x6 | x6 | G,3 D =AD | G,3 D =AD | %116
 !arpeggio![G,G=B]4 G,2 | G,4 G,2 | G,4 G,2 | G,4 G,2 | !arpeggio![G,G=B]4 G,2 | G,4 G,2 | %122
 G,4 G,2 | G,4 G,2 | G,4 F,2 | B,4 B,2 | B,4 B,2 | B,4 B,2 | B,4 =A,2 | G,4 C2 | D4 D2 | %131
 G,3 D =AD | G,3 D =AD | .G, x5 | x6 | .G z .G z .G z | .G z .G z .G z | x6 | x4 x2 | x6 |] %140
V:4
 x6 | x6 | x6 | z2 .D.D z D | x2 .D.D z D | x B3 x2 | x6 | z2 .D.D z D | x2 .D.D z D | x B3 x2 | %10
 x6 | x6 | x6 | x6 | x6 | x6 | x6 | x6 | x6 | x6 | x6 | x6 | x6 | x6 | x6 ||[K:Eb] x6 | x6 | x6 | %28
 x6 | x6 | x6 ||[K:D] x6 | x6 | x6 | x6 | x6 | x6 | x6 | x6 | x6 | x6 | x6 | x6 | x6 | x6 | x6 | %46
 x6 | x6 | x6 ||[K:G] x6 | x6 | x6 | z2 .D.D z D | x2 .D.D z D | x B3 x2 | x6 | z2 .D.D z D | %57
 x2 .D.D z D | x B3 x2 | x6 | x6 | x6 | x6 | x6 | x6 | x6 | x6 | x6 | x6 | x6 | x6 | x6 | x6 | x6 | %74
 x6 ||[K:Eb] x6 | x6 | x6 | x6 | x6 | x6 | x6 | x6 | x6 | x6 | x6 | x6 | x6 | x6 | x6 | x6 | x6 | %92
 x6 | x6 | x6 | x6 | x6 | x6 | x6 | x6 | x6 | x6 | x6 | x6 | x6 | x6 | x6 | x6 | x6 | x6 | x6 | %111
 x6 | x6 | x6 | x6 | x6 | x6 | z2 .D.D z D | x2 .D.D z D | x =B3 x2 | x6 | z2 .D.D z D | %122
 x2 .D.D z D | x =B3 x2 | x6 | x6 | x6 | x6 | x6 | x6 | x6 | x6 | x6 | x6 | x6 | x6 | x6 | x6 | %138
 x6 | x6 |] %140

